dist/img/svg/snowflake.svg

<svg width="33" height="34" viewBox="0 0 33 34" fill="none" xmlns="http://www.w3.org/2000/svg">
<path d="M32.58 11.0151L20.34 17.8551V16.1451L32.58 22.9851L29.79 27.9351L17.91 21.0051L18.9 20.3751L18.99 33.7851H13.59L13.68 20.3751L14.67 21.0051L2.79 27.9351L0 22.9851L12.33 16.1451V17.8551L0 11.0151L2.79 5.97509L14.67 12.9951L13.68 13.6251L13.59 0.215088H18.99L18.9 13.6251L17.91 12.9951L29.79 5.97509L32.58 11.0151Z" fill="currentColor"/>
</svg>

<svg width="33" height="34" viewBox="0 0 33 34" fill="none" xmlns="http://www.w3.org/2000/svg"><path d="M32.58 11.015l-12.24 6.84v-1.71l12.24 6.84-2.79 4.95-11.88-6.93.99-.63.09 13.41h-5.4l.09-13.41.99.63-11.88 6.93L0 22.985l12.33-6.84v1.71L0 11.015l2.79-5.04 11.88 7.02-.99.63-.09-13.41h5.4l-.09 13.41-.99-.63 11.88-7.02 2.79 5.04z" fill="currentColor"/></svg>
